src/assets/icons/icons-origin/Recaptcha.svg

<svg width="24" height="24" viewBox="0 0 24 24" xmlns="http://www.w3.org/2000/svg">
  <path d="M18.72 9.93007C18.7197 9.83369 18.7174 9.73784 18.7131 9.64245V4.20389L17.2096 5.70743C15.979 4.20117 14.107 3.23911 12.0102 3.23911C9.82815 3.23911 7.88959 4.28066 6.66415 5.89367L9.12863 8.38407C9.37015 7.93739 9.71326 7.55375 10.127 7.26399C10.5572 6.92823 11.1668 6.6537 12.0102 6.6537C12.112 6.6537 12.1907 6.6656 12.2484 6.68803C13.2933 6.7705 14.199 7.34713 14.7323 8.18408L12.9878 9.92856C15.1974 9.91989 17.6936 9.9148 18.7198 9.92968" fill="#1C3AA9" />
  <path d="M11.971 3.23935C11.8747 3.23967 11.7788 3.24189 11.6834 3.24621H6.24486L7.7484 4.74975C6.24214 5.98031 5.28008 7.85231 5.28008 9.94911C5.28008 12.1312 6.32164 14.0697 7.93463 15.2952L10.425 12.8307C9.97836 12.5892 9.59471 12.2461 9.30495 11.8324C8.96921 11.4021 8.69467 10.7925 8.69467 9.94919C8.69467 9.84731 8.70657 9.76868 8.729 9.7109C8.81147 8.66604 9.3881 7.76034 10.225 7.22706L11.9695 8.97154C11.9609 6.76194 11.9558 4.26578 11.9706 3.23954" fill="#4285F4" />
  <path d="M5.28032 9.94897C5.28064 10.0453 5.28286 10.1412 5.28718 10.2366V15.6751L6.79072 14.1716C8.02128 15.6779 9.89328 16.6399 11.9901 16.6399C14.1722 16.6399 16.1107 15.5984 17.3362 13.9854L14.8717 11.495C14.6302 11.9416 14.2871 12.3253 13.8734 12.6151C13.4431 12.9508 12.8335 13.2253 11.9902 13.2253C11.8883 13.2253 11.8096 13.2134 11.7519 13.191C10.707 13.1085 9.80131 12.5319 9.26803 11.695L11.0125 9.95048C8.80291 9.95915 6.30675 9.96424 5.28051 9.94936" fill="#ABABAB" />
  <path d="M6.41248 19.2384C6.24904 19.2384 6.10251 19.2694 5.97288 19.3314C5.84325 19.392 5.73336 19.4786 5.64318 19.5913C5.55442 19.704 5.48608 19.8407 5.43817 20.0013C5.39168 20.1605 5.36843 20.3388 5.36843 20.536V21.1045C5.36843 21.3032 5.39168 21.4821 5.43817 21.6413C5.48608 21.8005 5.55371 21.9365 5.64107 22.0492C5.72843 22.1619 5.83409 22.2486 5.95808 22.3092C6.08206 22.3698 6.22155 22.4001 6.37654 22.4001C6.53575 22.4001 6.67524 22.3768 6.795 22.3303C6.91617 22.2838 7.01761 22.2169 7.09934 22.1295C7.18106 22.0408 7.24376 21.9337 7.28744 21.8083C7.33252 21.6829 7.35929 21.5406 7.36775 21.3814H6.97675C6.96689 21.504 6.94999 21.6089 6.92603 21.6963C6.90208 21.7822 6.86686 21.8534 6.82036 21.9097C6.77527 21.9647 6.7161 22.0055 6.64282 22.0323C6.57097 22.0577 6.4822 22.0704 6.37654 22.0704C6.26382 22.0704 6.16801 22.0457 6.08911 21.9964C6.01021 21.9457 5.9461 21.8766 5.89679 21.7893C5.84889 21.7019 5.81366 21.5998 5.79112 21.4828C5.76998 21.3659 5.75942 21.2398 5.75942 21.1045V20.5318C5.75942 20.3867 5.7721 20.2549 5.79746 20.1366C5.82423 20.0182 5.86438 19.9175 5.91793 19.8343C5.97147 19.7512 6.0391 19.6871 6.12082 19.642C6.20254 19.5955 6.29977 19.5723 6.41247 19.5723C6.50687 19.5723 6.58788 19.5864 6.65551 19.6145C6.72314 19.6413 6.7795 19.6836 6.82458 19.7413C6.86967 19.7977 6.90419 19.8696 6.92814 19.9569C6.95209 20.0443 6.9683 20.1485 6.97675 20.2697H7.36774C7.3607 20.1034 7.33463 19.9562 7.28954 19.828C7.24446 19.6998 7.18176 19.592 7.10145 19.5046C7.02114 19.4173 6.92321 19.3511 6.80769 19.306C6.69356 19.2609 6.56184 19.2384 6.41248 19.2384ZM15.9568 19.2384C15.7934 19.2384 15.6468 19.2694 15.5172 19.3314C15.3876 19.392 15.2777 19.4786 15.1875 19.5913C15.0987 19.704 15.0304 19.8407 14.9825 20.0013C14.936 20.1605 14.9128 20.3388 14.9128 20.536V21.1045C14.9128 21.3032 14.936 21.4821 14.9825 21.6413C15.0304 21.8005 15.098 21.9365 15.1854 22.0492C15.2727 22.1619 15.3784 22.2486 15.5024 22.3092C15.6264 22.3698 15.7659 22.4001 15.9209 22.4001C16.0801 22.4001 16.2195 22.3768 16.3393 22.3303C16.4605 22.2838 16.5619 22.2169 16.6437 22.1295C16.7254 22.0408 16.7881 21.9337 16.8318 21.8083C16.8768 21.6829 16.9036 21.5406 16.9121 21.3814H16.5211C16.5112 21.504 16.4943 21.6089 16.4704 21.6963C16.4464 21.7822 16.4112 21.8534 16.3647 21.9097C16.3196 21.9647 16.2604 22.0055 16.1872 22.0323C16.1153 22.0577 16.0265 22.0704 15.9209 22.0704C15.8082 22.0704 15.7123 22.0457 15.6334 21.9964C15.5545 21.9457 15.4904 21.8766 15.4411 21.7893C15.3932 21.7019 15.358 21.5998 15.3355 21.4828C15.3143 21.3659 15.3038 21.2398 15.3038 21.1045V20.5318C15.3038 20.3867 15.3164 20.2549 15.3418 20.1366C15.3686 20.0182 15.4087 19.9175 15.4623 19.8343C15.5158 19.7512 15.5834 19.6871 15.6651 19.642C15.7469 19.5955 15.8441 19.5723 15.9568 19.5723C16.0512 19.5723 16.1322 19.5864 16.1998 19.6145C16.2675 19.6413 16.3238 19.6836 16.3689 19.7413C16.414 19.7977 16.4485 19.8696 16.4725 19.9569C16.4964 20.0443 16.5126 20.1485 16.5211 20.2697H16.912C16.905 20.1034 16.8789 19.9562 16.8339 19.828C16.7888 19.6998 16.7261 19.592 16.6458 19.5046C16.5654 19.4173 16.4675 19.3511 16.352 19.306C16.2379 19.2609 16.1062 19.2384 15.9568 19.2384ZM8.64016 19.2806L7.64896 22.3578H8.04628L8.2851 21.5547H9.32491L9.56795 22.3578H9.96528L8.97196 19.2806H8.64016ZM10.3837 19.2806V22.3578H10.7704V21.1531H11.3643C11.5122 21.1531 11.6433 21.1327 11.7574 21.0918C11.8715 21.0496 11.9673 20.989 12.0448 20.9101C12.1237 20.8312 12.1829 20.734 12.2223 20.6184C12.2632 20.5015 12.2836 20.369 12.2836 20.2211C12.2836 20.0844 12.2632 19.959 12.2223 19.8449C12.1829 19.7294 12.1244 19.63 12.0469 19.5469C11.9694 19.4624 11.8729 19.3968 11.7574 19.3504C11.6433 19.3039 11.5123 19.2806 11.3643 19.2806L10.3837 19.2806ZM12.5795 19.2806V19.6146H13.3868V22.3578H13.7736V19.6146H14.583V19.2806H12.5795ZM17.4341 19.2806V22.3578H17.8208V20.9354H19.0593V22.3578H19.4482V19.2806H19.0593V20.6037H17.8208V19.2806H17.4341ZM20.9149 19.2806L19.9237 22.3578H20.321L20.5598 21.5547H21.5996L21.8427 22.3578H22.24L21.2467 19.2806H20.9149ZM10.7704 19.6146H11.3643C11.4587 19.6146 11.539 19.6315 11.6052 19.6653C11.6728 19.6991 11.7278 19.7442 11.77 19.8005C11.8137 19.8569 11.8454 19.9224 11.8651 19.9971C11.8863 20.0704 11.8969 20.1464 11.8969 20.2253C11.8969 20.3127 11.8863 20.393 11.8651 20.4663C11.8454 20.5381 11.8137 20.6008 11.77 20.6544C11.7278 20.7065 11.6728 20.7474 11.6052 20.7769C11.539 20.8065 11.4587 20.8213 11.3643 20.8213H10.7704V19.6146ZM8.80496 19.8217L9.22553 21.2208H8.38651L8.80496 19.8217ZM21.0797 19.8217L21.5003 21.2208H20.6612L21.0797 19.8217ZM2.87488 20.0288C2.77766 20.0288 2.69382 20.0535 2.62337 20.1028C2.55433 20.1521 2.49657 20.219 2.45008 20.3035L2.44373 20.0711H2.08023V22.3578H2.45431V20.7219C2.48953 20.6247 2.53955 20.5479 2.60436 20.4916C2.67058 20.4352 2.75442 20.407 2.85587 20.407C2.88827 20.407 2.91716 20.4085 2.94252 20.4113C2.96788 20.4127 2.99535 20.4162 3.02494 20.4218L3.02283 20.0583C3.01719 20.0555 3.00803 20.0527 2.99535 20.0499C2.98408 20.0456 2.9714 20.0421 2.95731 20.0393C2.94322 20.0365 2.92843 20.0344 2.91293 20.0329C2.89884 20.0301 2.88615 20.0288 2.87488 20.0288ZM4.13236 20.0288C4.02387 20.0288 3.91891 20.0478 3.81747 20.0859C3.71602 20.1239 3.62585 20.1866 3.54696 20.274C3.46946 20.3599 3.40677 20.4726 3.35886 20.6121C3.31096 20.7502 3.287 20.92 3.287 21.1215V21.3793C3.287 21.554 3.30743 21.7055 3.34829 21.8337C3.38915 21.9619 3.44762 22.0683 3.5237 22.1528C3.60119 22.2359 3.69489 22.2979 3.80479 22.3388C3.91469 22.3797 4.03797 22.4001 4.17465 22.4001C4.27327 22.4001 4.36133 22.3902 4.43882 22.3705C4.51772 22.3508 4.58747 22.3254 4.64805 22.2944C4.70864 22.262 4.76077 22.2254 4.80445 22.1845C4.84812 22.1437 4.88546 22.1014 4.91646 22.0577L4.72203 21.821C4.69103 21.859 4.65792 21.8943 4.62269 21.9267C4.58747 21.9577 4.54873 21.9852 4.50646 22.0091C4.46419 22.0316 4.41769 22.0493 4.36697 22.0619C4.31625 22.0746 4.25918 22.081 4.19579 22.081C4.02249 22.081 3.88934 22.0253 3.79635 21.914C3.70476 21.8027 3.65897 21.6245 3.65897 21.3793V21.3265H4.93549V21.1088C4.93549 20.9341 4.92069 20.7798 4.8911 20.6459C4.86152 20.5121 4.81432 20.3994 4.7495 20.3078C4.68469 20.2162 4.60156 20.1472 4.50011 20.1007C4.39867 20.0528 4.27609 20.0288 4.13236 20.0288ZM4.13236 20.3501C4.21408 20.3501 4.28171 20.3648 4.33526 20.3944C4.3888 20.424 4.43107 20.4656 4.46207 20.5191C4.49447 20.5727 4.51772 20.6368 4.53181 20.7114C4.54731 20.7847 4.55717 20.8657 4.5614 20.9545V21.0052H3.66108C3.66671 20.877 3.68221 20.7706 3.70757 20.6861C3.73293 20.6015 3.76604 20.5346 3.8069 20.4853C3.84917 20.4346 3.89778 20.3994 3.95273 20.3796C4.00768 20.3599 4.06754 20.3501 4.13236 20.3501Z" fill="#A6A6A6" />
</svg>

<svg width="24" height="24" viewBox="0 0 24 24" xmlns="http://www.w3.org/2000/svg">
  <path d="M18.72 9.93a6.86 6.86 0 0 0-.007-.288V4.204L17.21 5.707a6.698 6.698 0 0 0-5.2-2.468 6.699 6.699 0 0 0-5.346 2.655l2.465 2.49c.241-.447.584-.83.998-1.12.43-.336 1.04-.61 1.883-.61.102 0 .18.012.238.034a3.25 3.25 0 0 1 2.484 1.496L12.988 9.93c2.21-.01 4.706-.014 5.732 0" fill="#1C3AA9"/>
  <path d="M11.971 3.24c-.096 0-.192.002-.288.006H6.245L7.748 4.75a6.697 6.697 0 0 0-2.468 5.2 6.7 6.7 0 0 0 2.655 5.345l2.49-2.464a3.265 3.265 0 0 1-1.12-.999c-.336-.43-.61-1.04-.61-1.883 0-.102.012-.18.034-.238a3.25 3.25 0 0 1 1.496-2.484l1.745 1.745c-.01-2.21-.014-4.706 0-5.732" fill="#4285F4"/>
  <path d="M5.28 9.949c0 .096.003.192.007.288v5.438l1.504-1.503a6.697 6.697 0 0 0 5.2 2.468 6.7 6.7 0 0 0 5.345-2.655l-2.464-2.49c-.242.447-.585.83-.999 1.12-.43.336-1.04.61-1.883.61a.673.673 0 0 1-.238-.034 3.25 3.25 0 0 1-2.484-1.496l1.744-1.745c-2.21.01-4.705.014-5.731 0" fill="#ABABAB"/>
  <path d="M6.412 19.238c-.163 0-.31.031-.44.093a.911.911 0 0 0-.329.26c-.089.113-.157.25-.205.41-.046.16-.07.338-.07.535v.569c0 .198.024.377.07.536.048.16.116.296.203.408a.894.894 0 0 0 .736.351c.159 0 .298-.023.418-.07a.803.803 0 0 0 .492-.522c.046-.125.072-.267.08-.427h-.39c-.01.123-.027.228-.051.315a.572.572 0 0 1-.106.214.403.403 0 0 1-.177.122.806.806 0 0 1-.266.038.532.532 0 0 1-.288-.074.58.58 0 0 1-.192-.207 1.046 1.046 0 0 1-.106-.306 2.127 2.127 0 0 1-.032-.378v-.573c0-.145.013-.277.038-.395a.936.936 0 0 1 .12-.303.563.563 0 0 1 .495-.262c.095 0 .176.014.244.043.067.026.123.069.169.126.045.057.08.129.103.216.024.087.04.191.049.313h.39a1.525 1.525 0 0 0-.077-.442.924.924 0 0 0-.189-.323.777.777 0 0 0-.293-.199 1.07 1.07 0 0 0-.396-.068Zm9.545 0c-.164 0-.31.031-.44.093a.912.912 0 0 0-.33.26c-.088.113-.157.25-.204.41-.047.16-.07.338-.07.535v.569c0 .198.023.377.07.536.047.16.115.296.202.408a.893.893 0 0 0 .736.351c.16 0 .299-.023.418-.07a.804.804 0 0 0 .493-.522c.045-.125.072-.267.08-.427h-.39a1.74 1.74 0 0 1-.052.315.572.572 0 0 1-.105.214.403.403 0 0 1-.178.122.806.806 0 0 1-.266.038.532.532 0 0 1-.288-.074.58.58 0 0 1-.192-.207 1.045 1.045 0 0 1-.106-.306 2.122 2.122 0 0 1-.031-.378v-.573c0-.145.012-.277.038-.395a.935.935 0 0 1 .12-.303.563.563 0 0 1 .495-.262c.094 0 .175.014.243.043.067.026.124.069.169.126.045.057.08.129.104.216.023.087.04.191.048.313h.391a1.527 1.527 0 0 0-.078-.442.924.924 0 0 0-.188-.323.778.778 0 0 0-.294-.199 1.07 1.07 0 0 0-.395-.068Zm-7.317.043-.991 3.077h.397l.24-.803h1.039l.243.803h.397l-.993-3.077H8.64Zm1.744 0v3.077h.386v-1.205h.594c.148 0 .28-.02.393-.061a.745.745 0 0 0 .465-.473 1.2 1.2 0 0 0 .062-.398c0-.137-.02-.262-.062-.376a.781.781 0 0 0-.465-.494 1.035 1.035 0 0 0-.393-.07h-.98Zm2.195 0v.334h.808v2.743h.387v-2.743h.809v-.334h-2.004Zm4.855 0v3.077h.387v-1.423h1.238v1.423h.39V19.28h-.39v1.323h-1.238V19.28h-.387Zm3.48 0-.99 3.077h.397l.239-.803h1.04l.243.803h.397l-.993-3.077h-.332Zm-10.144.334h.594c.095 0 .175.017.241.05a.458.458 0 0 1 .165.136.543.543 0 0 1 .095.196.865.865 0 0 1 0 .47.505.505 0 0 1-.095.187.428.428 0 0 1-.165.123.588.588 0 0 1-.24.044h-.595v-1.206Zm-1.965.207.42 1.399h-.838l.418-1.4Zm12.275 0 .42 1.399h-.839l.419-1.4Zm-18.205.207a.428.428 0 0 0-.252.074.592.592 0 0 0-.173.2l-.006-.232H2.08v2.287h.374v-1.636a.542.542 0 0 1 .15-.23.374.374 0 0 1 .252-.085.795.795 0 0 1 .169.015l-.002-.364a.13.13 0 0 0-.028-.008.45.45 0 0 0-.12-.021Zm1.257 0a.888.888 0 0 0-.315.057.687.687 0 0 0-.27.188.967.967 0 0 0-.188.338 1.568 1.568 0 0 0-.072.51v.257c0 .175.02.326.061.455.041.128.1.234.176.319a.723.723 0 0 0 .28.186c.11.04.234.061.37.061a1.075 1.075 0 0 0 .474-.106.733.733 0 0 0 .268-.236l-.194-.237a.687.687 0 0 1-.216.188.607.607 0 0 1-.31.072.491.491 0 0 1-.4-.167c-.091-.111-.137-.29-.137-.535v-.053h1.276v-.217a2.16 2.16 0 0 0-.044-.463.924.924 0 0 0-.141-.338.614.614 0 0 0-.25-.207.856.856 0 0 0-.368-.072Zm0 .321c.082 0 .15.015.203.044.054.03.096.072.127.125a.575.575 0 0 1 .07.192c.015.074.025.155.03.244v.05h-.9c.005-.128.02-.234.046-.319a.568.568 0 0 1 .099-.2.339.339 0 0 1 .146-.106.529.529 0 0 1 .18-.03Z" fill="#A6A6A6"/>
</svg>
